X:1
T:L'amara dispartita
T:Gemignano Capilupi
T:Source : Canzonette a tre voce di H.Vecchi et di G.Capilupi da Modena---Venetia---Ang_Gardano---1597. Editor : André Vierendeels (15/02/17).
T:Notes : Original clefs : G2, G2, F3 Editorial accidentals above the staff Lute accompaniment is not added in this edition
T:L'amara dispartita
T:©
T:©
T:©
C:Gemignano Capilupi
Z:©
%%score [ 1 2 3 ]
L:1/8
Q:1/4=120
M:4/4
K:F
V:1 treble nm="Soprano 1" snm="S 1"
V:2 treble nm="Soprano 2" snm="S 2"
V:3 treble-8 nm="Tenor" snm="T"
V:1
 z4 d4 | d6 d2 | d4 c4 | B8 | A2 a2 a2 g2 | f2 f2 f2 e2 | d4 z2 d2 | d2 c2 B3 A | G4 A4 | B4 c4 | %10
w: L'a-|ma- ra|dis- par-|ti-|ta, a la- gri-|mar, a so- spi-|rar, a|so- spi- rar _|_ m'in-|vi- *|
w: L'as-|pro do-|lor on-|di-|o, ver- so ad'|o- gnor, ad o-|gnor, ad|o- gnor, un la-|cri- mo-|so ri-|
[M:2/4] d4 ::[M:4/4] z2 A2 d3 d | d2 c2 B4 | A4 d2 dd | d2 d2 g2 f2 | _e2 d2 c4 | d4 z2 f2 | %17
w: ta;|E se'l ri-|tor- no ca-|ro, to- sto non|ad- dol- cis- se'il|piant' a- ma-|ro, ve-|
w: o,|fa- rà ch'in|po- co d'ho-|re, l'a- ni- ma|mia per gl'oc- chi'u-|sci- ra fuo-|re, od'|
 f2 _e2 d2 c2 | A4 A2 d2- | de f2 B4 | z2 B3 c d2 | G4 z2 g2- | gf _e2 d2 f2- | fe d2 c2 _e2- | %24
w: dras- s'in o- gni|lo- co, scin-|* til- lar fuor,|scin- til- lar|fuor, scin-|* til- lar fuor, scin-|* til- lar fuor, scin-|
w: hau- ro'in pet- to'al-|me- no, bo-|* re'a tutt' hor,|bo- re'a tutt'|hor, bo-|* re'a tutt' hor, bo-|* re'a tutt' hor, bo|
 ed c2 B2 G2 | B2 c2 d2 B2 | A4 !fermata!G4 :| %27
w: * til- la fuor l'ar-|den- te mio gran|fo- co.|
w: _ re'a tutt' hor, e|l'O- ce- a- no'in|se- no.|
V:2
 A8 | B6 B2 | B4 A4 | G8 | F2 f2 f2 e2 | d4 z4 | z2 f2 f3 e | d8- | d4 d4 | G8 |[M:2/4] ^F4 :: %11
w: L'a-|ma- ra|dis- par-|ti-|ta, a la- gri-|mar,|a so- spi-|rar|_ m'in-|vi-|ta;|
w: Ma|se piu|va- go|cie-|lo, fa- rà spa-|rir|si nu- bi-|lo-|* so|ve-|lo,|
[M:4/4] z2 F2 B3 B | B2 A2 G4 | ^F4 B2 BB | B2 A2 B2 F2 | G2 B2 A4 | B2 d2 d4- | d2 c2 A2 G2 | %18
w: E se'l ri-|tor- no ca-|ro, to- sto non|ad- dol- cis- se'il|piant' a- mo-|ro, ve- dras-|* s'in o- gni|
w: so- a- ve|fia'il par- ti-|re, chiu- sa la|fiam- ma'e gio- ia'il|mio mar- ti-|re, e- vin-|* to l'on- da'e'l|
 ^F3 G A2 B2 | A4 G2 g2- | gf _e2 d2 B2- | Bc d2 G4 | z2 B3 c d2 | A2 A3 B c2 | G2 G3 A B2 | %25
w: lo- * * *|* co, scin|_ til- lar fuor, scin-|* til- lar fuor,|scin- til- lar|fuor, scin- til- lar|fuor, l'ar- * *|
w: ven- * * *|* to, giun-|* ge- ro là, giun-|* ge- ro là,|giun- ge- ro|là, giun- ge- ro|là, dov' _ _|
 G2 A2 B2 G2 | ^F4 !fermata!G4 :| %27
w: den- te mio gran|fo- co.|
w: o- gni mal è|spen- to.|
V:3
 d8 | B6 B2 | B4 F4 | G8 | D8 | z2 d2 d2 c2 | B4 z2 B2 | B2 A2 G4- | G4 F4 |"^b" E8 |[M:2/4] D4 :: %11
w: L'a-|ma- ra|dis- par-|ti-|ta,|a la- gri-|mar, a|so- spi- rar|_ m'in-|vi-|ta;|
[M:4/4] z2 d2 B3 B | B2 c2 d4 | d4 G2 GG |"^b" G2 F2 E2 D2 | C2 B,2 F4 | B,2 B2 B4- | %17
w: E se'l ri-|tor- no ca-|ro, to- sto non|ad- dol- cis- se'il|piant' a- mo-|ro, ve- dras-|
 B2 c2 d2 _e2 | d8 | d4 G2 G2 | G4 G4- | G2 F2 _E4- | E2 DC B,3 C | D3 E F2 C2 | CD_EF G4 | %25
w: * s'in o- gni|lo-|co, scin- til-|lar fuor|_ l'ar- den-||* * * te|mio _ _ _ _|
 _E4 D4- | D4 !fermata!G4 :| %27
w: gran fo-|* co.|

